svgs/light/triangle-exclamation.svg

<svg xmlns="http://www.w3.org/2000/svg" viewBox="0 0 512 512"><!-- Font Awesome Pro 6.0.0-alpha2 by @fontawesome - https://fontawesome.com License - https://fontawesome.com/license (Commercial License) --><path d="M256.003 360C242.75 360 232.005 370.744 232.005 384C232.005 397.254 242.75 408 256.003 408C269.256 408 280.001 397.254 280.001 384C280.001 370.744 269.256 360 256.003 360ZM256.003 320C264.846 320 272.002 312.844 272.002 304V160C272.002 151.156 264.846 144 256.003 144S240.004 151.156 240.004 160V304C240.004 312.844 247.16 320 256.003 320ZM504.343 397.344L304.452 59.375C294.375 42.266 276.314 32.031 256.112 32H256.018C235.817 32 217.693 42.219 207.538 59.359L7.647 397.359C-2.399 414.328 -2.555 434.703 7.226 451.859C17.287 469.484 35.551 480 56.097 480H455.987C476.501 480 494.734 469.469 504.796 451.828C514.56 434.672 514.389 414.312 504.343 397.344ZM476.985 435.984C472.704 443.5 464.846 448 455.987 448H56.097C47.191 448 39.317 443.516 35.02 436C30.942 428.844 31.005 420.703 35.177 413.641L235.067 75.656C239.395 68.359 247.222 64 256.034 64C256.034 64 256.05 64 256.065 64C264.83 64.016 272.611 68.359 276.907 75.641L476.813 413.641V413.656C480.985 420.703 481.063 428.844 476.985 435.984Z"/></svg>

<svg xmlns="http://www.w3.org/2000/svg" viewBox="0 0 512 512"><!--! Font Awesome Pro 6.3.0 by @fontawesome - https://fontawesome.com License - https://fontawesome.com/license (Commercial License) Copyright 2023 Fonticons, Inc. --><path d="M256 360c-13.25 0-23.1 10.74-23.1 24c0 13.25 10.75 24 23.1 24c13.25 0 23.1-10.75 23.1-24C280 370.7 269.3 360 256 360zM256 320c8.843 0 15.1-7.156 15.1-16V160c0-8.844-7.155-16-15.1-16S240 151.2 240 160v144C240 312.8 247.2 320 256 320zM504.3 397.3L304.5 59.38C294.4 42.27 276.2 32.03 256 32C235.8 32 217.7 42.22 207.5 59.36l-199.9 338c-10.05 16.97-10.2 37.34-.4218 54.5C17.29 469.5 35.55 480 56.1 480h399.9c20.51 0 38.75-10.53 48.81-28.17C514.6 434.7 514.4 414.3 504.3 397.3zM476.1 435.1C472.7 443.5 464.8 448 455.1 448H56.1c-8.906 0-16.78-4.484-21.08-12c-4.078-7.156-4.015-15.3 .1562-22.36L235.1 75.66C239.4 68.36 247.2 64 256 64c0 0-.0156 0 0 0c8.765 .0156 16.56 4.359 20.86 11.64l199.9 338C480.1 420.7 481.1 428.8 476.1 435.1z"/></svg>
